X: 121
T: Tenpenny Bit
O: Trad Ireland
R: jig
B: NEFR #10
B: Harding’s "All Round Collection" 1905, under the title “Made in Ireland”
N: Similar to The Three Little Drummers
Z: 1997 by John Chambers <jc:trillian.mit.edu>
M: 6/8
L: 1/8
K: ADor
|:\
"Am"eAA eAA | "G"BAB GBd | "Am"eAA eAA | "G"def g[af]g |\
"Am"eAA eAA | "G"BAB GBd | "G"edB gdB | BAG "Am"A3 ::
"Am"eaa aga | "G"bab ged | "Am"eaa aga | "G"bab g2d |\
"Am"eaa aga | "G"bab ged | "G"def gdB | BAG "Am"A3 :|

%%sep 1 1 500

